devices/symbolic/media-sim-card-symbolic.svg

<svg xmlns="http://www.w3.org/2000/svg" viewBox="0 0 16 16">
  <defs id="defs3051">
    <style type="text/css" id="current-color-scheme">
      .ColorScheme-Text {
        color:#4d4d4d;
      }
      </style>
  </defs>
 <path 
     style="fill:#bebebe;fill-opacity:1;stroke:none" 
     class="ColorScheme-Text"
     d="M 6.4003906 0 L 1.5996094 4.8007812 L 1.5996094 14.400391 A 1.6 1.6 0 0 0 3.1992188 16 L 12.800781 16 C 13.688781 16 14.400391 15.280391 14.400391 14.400391 L 14.400391 1.5996094 A 1.6 1.6 0 0 0 12.800781 0 L 6.4003906 0 z M 4 7.1992188 L 5.5996094 7.1992188 L 5.5996094 10.400391 L 4 10.400391 L 4 7.1992188 z M 7.1992188 7.1992188 L 8.8007812 7.1992188 L 8.8007812 8.8007812 L 7.1992188 8.8007812 L 7.1992188 7.1992188 z M 10.400391 7.1992188 L 12 7.1992188 L 12 10.400391 L 10.400391 10.400391 L 10.400391 7.1992188 z M 7.1992188 10.400391 L 8.8007812 10.400391 L 8.8007812 13.599609 L 7.1992188 13.599609 L 7.1992188 10.400391 z M 4 12 L 5.5996094 12 L 5.5996094 13.599609 L 4 13.599609 L 4 12 z M 10.400391 12 L 12 12 L 12 13.599609 L 10.400391 13.599609 L 10.400391 12 z "
     />
</svg>

<svg xmlns="http://www.w3.org/2000/svg" viewBox="0 0 16 16">
  <path fill="#bebebe" d="M6.4 0L1.6 4.8v9.6A1.6 1.6 0 0 0 3.2 16h9.6c.889 0 1.6-.72 1.6-1.6V1.6A1.6 1.6 0 0 0 12.8 0H6.4zM4 7.2h1.6v3.2H4V7.2zm3.2 0h1.6v1.6H7.2V7.2zm3.2 0H12v3.2h-1.6V7.2zm-3.2 3.2h1.6v3.2H7.2v-3.2zM4 12h1.6v1.6H4V12zm6.4 0H12v1.6h-1.6V12z"/>
</svg>
